<?xml version="1.0" encoding="UTF-8"?>
<map version="1.10" tiledversion="1.12.2" orientation="orthogonal" renderorder="right-down" width="20" height="15" tilewidth="16" tileheight="16" infinite="0" nextlayerid="10" nextobjectid="1">
 <tileset firstgid="1" source="walls_floor.tsx"/>
 <tileset firstgid="177" source="Interior.tsx"/>
 <layer id="2" name="Floor 1" width="20" height="15">
  <data encoding="csv">
0,0,0,0,0,0,0,0,0,0,0,0,0,0,104,104,104,0,104,104,
0,0,0,0,0,0,0,0,0,0,0,0,0,0,0,104,104,104,104,104,
0,0,0,0,0,0,0,0,0,0,0,0,0,0,0,104,104,104,104,104,
0,0,0,0,0,0,107,0,115,0,0,0,0,0,0,104,104,104,104,104,
0,107,105,107,104,115,104,104,115,104,104,104,104,104,104,104,104,105,104,104,
104,104,105,104,107,104,106,115,115,106,104,104,115,104,105,104,107,105,104,104,
104,107,104,105,104,106,104,105,104,105,104,106,104,105,106,106,107,104,104,104,
104,104,104,106,106,115,115,104,104,104,104,105,105,106,106,107,107,107,105,104,
104,104,104,106,104,104,105,106,104,104,105,104,104,106,106,105,106,104,104,104,
104,104,104,107,104,107,105,104,105,107,104,104,105,115,115,115,104,104,105,0,
0,104,105,104,115,104,104,104,106,106,104,104,106,104,104,106,104,107,104,0,
0,104,107,106,106,104,104,104,104,107,104,104,106,106,106,106,104,115,104,0,
0,106,115,106,104,105,105,104,104,105,106,106,107,106,106,106,104,106,104,0,
104,104,115,106,106,107,105,106,105,105,104,104,104,106,106,106,106,106,107,104,
0,0,0,0,0,0,0,0,0,0,0,0,0,0,104,104,104,104,151,104
</data>
 </layer>
 <layer id="1" name="Walls 1" width="20" height="15">
  <data encoding="csv">
137,151,151,151,151,151,151,151,151,151,151,151,151,151,151,151,151,151,151,138,
147,24,24,24,24,24,24,24,24,24,24,24,24,24,24,24,24,24,24,145,
147,68,68,68,12,13,14,68,68,68,68,68,68,68,68,68,68,68,68,145,
147,79,79,79,12,13,14,79,79,79,79,79,79,79,79,79,79,79,79,145,
147,0,0,0,12,13,14,0,0,0,0,0,0,0,0,0,0,0,0,145,
147,0,0,0,23,24,25,0,0,0,0,0,0,0,0,0,0,0,0,145,
147,0,0,0,34,35,36,0,0,0,0,0,0,0,0,0,0,0,0,145,
147,0,0,0,45,46,47,0,0,0,0,0,0,0,0,0,0,0,0,145,
147,0,0,0,0,0,0,0,0,0,0,0,0,0,0,0,0,0,0,145,
147,0,0,0,0,0,0,0,0,0,0,0,0,0,0,0,0,0,0,145,
147,0,0,0,0,0,0,0,0,0,0,0,0,0,0,0,0,0,0,145,
147,0,0,0,0,0,0,0,0,0,0,0,0,0,0,0,0,0,0,145,
147,0,0,0,0,0,0,0,0,0,0,0,0,0,0,0,0,0,0,145,
147,0,0,0,0,0,0,0,0,0,0,0,0,0,0,0,0,0,0,145,
148,135,135,135,135,135,135,135,135,135,135,135,135,135,135,135,135,135,135,149
</data>
 </layer>
 <layer id="3" name="Walls 2" width="20" height="15">
  <data encoding="csv">
145,135,135,135,135,135,135,135,135,135,135,135,135,135,135,135,135,135,135,147,
145,0,0,0,0,0,0,0,0,0,0,0,0,0,0,0,0,0,0,147,
145,0,0,0,0,0,0,0,0,0,0,0,0,0,0,0,0,0,0,147,
145,0,0,0,0,0,0,0,0,0,0,0,0,0,0,0,0,0,0,147,
145,0,0,0,0,0,0,0,0,0,0,0,0,0,0,0,0,0,0,147,
145,0,0,0,0,0,0,0,0,0,0,0,0,0,0,0,0,0,0,147,
145,0,0,0,0,0,0,0,0,0,0,0,0,0,0,0,0,0,0,147,
145,0,0,0,0,0,0,0,0,0,0,0,0,0,0,0,0,0,0,147,
145,0,0,0,0,0,0,0,0,0,0,0,0,0,0,0,0,0,0,147,
145,0,0,0,0,0,0,0,0,0,0,0,0,0,0,0,0,0,0,147,
145,0,0,0,0,0,0,0,0,0,0,0,0,0,0,0,0,0,0,147,
145,0,0,0,0,0,0,0,0,0,0,0,0,0,0,0,0,0,0,147,
145,0,0,0,0,0,0,0,0,0,0,0,0,0,0,0,0,0,0,147,
145,142,142,142,142,142,142,142,142,142,142,142,142,142,142,141,141,141,142,147,
145,157,157,157,157,157,157,157,157,157,157,157,157,157,157,157,157,157,157,145
</data>
 </layer>
 <layer id="9" name="Walls" width="20" height="15">
  <data encoding="csv">
0,0,0,0,0,0,0,0,0,0,0,0,0,0,0,0,0,0,0,0,
0,0,0,0,12,13,14,0,0,0,0,0,0,0,0,0,0,0,0,0,
0,0,0,108,109,13,272,273,0,108,109,0,0,0,0,0,0,0,0,0,
0,0,0,119,120,13,286,287,0,119,120,0,0,0,0,0,0,0,0,0,
0,0,0,0,12,13,300,301,0,0,0,0,0,0,0,0,0,0,0,0,
0,0,0,0,23,24,25,0,0,0,0,0,0,0,0,0,0,0,0,0,
0,0,0,0,34,35,36,0,0,0,0,0,0,0,0,0,0,0,0,0,
0,0,0,0,45,46,47,0,0,0,0,0,0,0,0,0,0,0,0,0,
0,0,0,0,0,0,0,0,0,0,0,0,0,0,0,0,0,0,0,0,
0,0,0,0,0,0,0,0,0,0,0,0,0,0,0,0,0,0,0,0,
0,0,0,0,0,0,0,0,0,0,0,0,0,0,0,0,0,0,0,0,
0,225,226,227,228,0,0,0,0,0,0,0,0,0,0,0,0,0,0,0,
0,239,240,241,242,0,0,0,0,0,0,0,0,0,0,0,0,0,0,0,
0,253,254,255,256,0,0,0,0,0,0,0,0,0,0,0,0,0,0,0,
0,0,0,0,0,0,0,0,0,0,0,0,0,0,0,0,0,0,0,0
</data>
 </layer>
 <layer id="4" name="Carpet" width="20" height="15">
  <data encoding="csv">
0,0,0,0,0,0,0,0,0,0,0,0,0,0,0,0,0,0,0,0,
0,0,0,0,0,0,0,0,0,0,0,0,0,0,0,0,0,0,0,0,
0,0,0,0,0,0,0,0,0,0,0,0,0,0,0,0,0,0,0,0,
0,0,0,0,0,0,0,0,0,0,0,0,0,0,0,0,0,0,0,0,
0,0,0,0,0,0,0,0,0,0,0,0,0,0,0,0,0,0,0,0,
0,0,0,0,0,0,0,0,0,0,0,0,0,0,0,0,0,0,0,0,
0,0,0,0,0,0,0,0,410,411,411,411,412,0,0,0,0,0,0,0,
0,0,0,0,0,0,0,451,424,425,425,425,426,455,0,0,0,0,0,0,
0,0,0,0,0,0,0,437,438,439,439,439,440,441,0,0,0,0,0,0,
0,0,0,0,0,0,0,451,438,453,453,453,440,455,0,0,0,0,0,0,
0,0,0,0,0,0,0,451,452,453,453,453,454,455,0,0,0,0,0,0,
0,0,0,0,0,0,0,0,466,467,467,467,468,0,0,0,0,0,0,0,
0,0,0,0,0,0,0,0,0,0,0,0,0,0,0,410,411,412,0,0,
0,0,0,0,0,0,0,0,0,0,0,0,0,0,0,424,425,426,0,0,
0,0,0,0,0,0,0,0,0,0,0,0,0,0,0,0,0,0,0,0
</data>
 </layer>
 <layer id="6" name="Table" width="20" height="15">
  <data encoding="csv">
0,0,0,0,0,0,0,0,0,0,0,0,0,0,0,0,0,0,0,0,
0,0,0,0,0,0,0,0,0,0,0,0,0,0,0,262,263,264,265,0,
0,0,0,0,0,0,0,0,0,0,0,0,0,0,0,276,277,278,279,0,
0,0,0,0,0,0,0,0,0,0,0,0,0,0,0,290,291,292,293,0,
0,0,0,0,0,0,0,0,0,0,0,0,0,0,0,304,305,306,307,0,
0,0,0,0,0,0,0,0,0,0,0,0,0,0,0,0,0,0,0,0,
0,0,0,0,0,0,0,0,0,0,0,0,0,0,0,0,0,0,0,0,
0,0,0,0,0,0,0,0,311,312,313,314,315,0,0,0,0,0,0,0,
0,0,0,0,0,0,0,0,325,326,327,328,329,0,0,0,0,0,0,0,
0,0,0,0,0,0,0,0,339,340,341,342,343,0,0,0,0,0,0,0,
0,0,0,0,0,0,0,0,359,354,355,356,359,0,0,0,0,0,0,0,
0,0,0,0,0,0,0,0,0,0,0,0,0,0,0,0,0,0,0,0,
0,0,0,0,0,0,0,0,0,0,0,0,0,0,0,0,0,0,0,0,
0,0,0,0,0,0,0,0,0,0,0,0,0,0,0,0,0,0,0,0,
0,0,0,0,0,0,0,0,0,0,0,0,0,0,0,0,0,0,0,0
</data>
 </layer>
 <layer id="8" name="Boxes" width="20" height="15">
  <data encoding="csv">
0,0,0,0,0,0,0,0,0,0,0,0,0,0,0,0,0,0,0,0,
0,0,0,0,0,0,0,0,0,0,0,0,0,0,0,0,0,0,0,0,
0,0,0,0,0,0,0,0,0,0,0,0,0,0,0,0,0,0,0,0,
0,0,0,0,0,0,0,0,0,0,0,0,0,237,238,0,0,0,0,0,
0,0,0,0,0,0,0,0,0,0,0,0,0,251,252,0,0,0,0,0,
0,0,0,0,0,0,0,0,0,0,0,0,0,0,0,0,0,0,0,0,
0,0,0,0,0,0,0,0,0,0,0,0,0,0,0,0,0,0,0,0,
0,0,0,0,0,0,0,0,0,0,0,0,0,0,0,0,0,0,0,0,
0,0,0,0,0,0,0,0,0,0,0,0,0,0,0,0,0,0,0,0,
0,0,0,0,0,0,0,0,0,0,0,0,0,0,0,0,0,0,0,0,
0,0,0,0,0,0,0,0,0,0,0,0,0,0,0,0,0,0,0,0,
0,0,0,0,0,0,0,0,0,0,0,0,0,0,0,0,0,0,0,0,
0,0,0,0,0,0,0,0,0,0,0,0,0,0,0,0,0,0,0,0,
0,0,0,0,0,0,0,0,0,0,0,0,0,0,0,0,0,0,0,0,
0,0,0,0,0,0,0,0,0,0,0,0,0,0,0,0,0,0,0,0
</data>
 </layer>
 <layer id="5" name="Bed" width="20" height="15">
  <data encoding="csv">
0,0,0,0,0,0,0,0,0,0,0,0,0,0,0,0,0,0,0,0,
0,0,0,0,0,0,0,0,0,0,0,0,0,0,0,0,0,0,0,0,
0,0,0,0,0,0,0,0,0,0,0,0,0,0,0,0,0,0,0,0,
0,195,196,0,0,0,0,0,0,0,0,0,0,0,0,0,0,0,0,0,
0,209,210,0,0,0,0,0,0,0,0,0,0,0,0,0,0,0,0,0,
0,223,224,0,0,0,0,0,0,0,0,0,0,0,0,0,0,0,0,0,
0,0,0,0,0,0,0,0,0,0,0,0,0,0,0,0,0,0,0,0,
0,0,0,0,0,0,0,0,0,0,0,0,0,0,0,0,0,0,0,0,
0,0,0,0,0,0,0,0,0,0,0,0,0,0,0,0,0,0,0,0,
0,0,0,0,0,0,0,0,0,0,0,0,0,0,0,0,0,0,0,0,
0,0,0,0,0,0,0,0,0,0,0,0,0,0,0,0,0,0,0,0,
0,0,0,0,0,0,0,0,0,0,0,0,0,0,0,0,0,0,0,0,
0,0,0,0,0,0,0,0,0,0,0,0,0,0,0,0,0,0,0,0,
0,0,0,0,0,0,0,0,0,0,0,0,0,0,0,0,0,0,0,0,
0,0,0,0,0,0,0,0,0,0,0,0,0,0,0,0,0,0,0,0
</data>
 </layer>
</map>
